app/img/icn-big-timer.svg

<?xml version="1.0" encoding="UTF-8" standalone="no"?>
<svg width="30px" height="30px" viewBox="0 0 30 30" version="1.1" xmlns="http://www.w3.org/2000/svg" xmlns:xlink="http://www.w3.org/1999/xlink">
    <!-- Generator: Sketch 48.2 (47327) - http://www.bohemiancoding.com/sketch -->
    <title>icn-big-timer</title>
    <desc>Created with Sketch.</desc>
    <defs></defs>
    <g id="Symbols" stroke="none" stroke-width="1" fill="none" fill-rule="evenodd">
        <g id="icn-big-timer" fill="#FFFFFF" fill-rule="nonzero">
            <g id="Combined-Shape">
                <path d="M14,4 L13,4 C12.4477153,4 12,3.55228475 12,3 C12,2.44771525 12.4477153,2 13,2 L17,2 C17.5522847,2 18,2.44771525 18,3 C18,3.55228475 17.5522847,4 17,4 L16,4 L16,5.54699995 C18.3975791,5.77351771 20.56046,6.80623191 22.2146433,8.37114316 L24.2071068,6.37867966 L25.6213203,7.79289322 L23.5335142,9.88069938 C24.771192,11.6036185 25.5,13.7166981 25.5,16 C25.5,21.7989899 20.7989899,26.5 15,26.5 C9.20101013,26.5 4.5,21.7989899 4.5,16 C4.5,10.5382941 8.67006771,6.05055971 14,5.54699995 L14,4 Z M15,24.5 C19.6944204,24.5 23.5,20.6944204 23.5,16 C23.5,11.3055796 19.6944204,7.5 15,7.5 C10.3055796,7.5 6.5,11.3055796 6.5,16 C6.5,20.6944204 10.3055796,24.5 15,24.5 Z M15,9.5 C15.5522847,9.5 16,9.94771525 16,10.5 L16,16 C16,16.5522847 15.5522847,17 15,17 C14.4477153,17 14,16.5522847 14,16 L14,10.5 C14,9.94771525 14.4477153,9.5 15,9.5 Z"></path>
            </g>
        </g>
    </g>
</svg>

<svg width="30" height="30" xmlns="http://www.w3.org/2000/svg"><path d="M14 4h-1a1 1 0 0 1 0-2h4a1 1 0 0 1 0 2h-1v1.547c2.398.227 4.56 1.26 6.215 2.824l1.992-1.992 1.414 1.414-2.087 2.088A10.452 10.452 0 0 1 25.5 16c0 5.799-4.701 10.5-10.5 10.5S4.5 21.799 4.5 16c0-5.462 4.17-9.95 9.5-10.453V4zm1 20.5a8.5 8.5 0 1 0 0-17 8.5 8.5 0 0 0 0 17zm0-15a1 1 0 0 1 1 1V16a1 1 0 0 1-2 0v-5.5a1 1 0 0 1 1-1z" fill="#FFF" fill-rule="nonzero"/></svg>
